Adwaita/symbolic/status/network-vpn-symbolic.svg

<?xml version="1.0" encoding="UTF-8"?>
<svg height="16px" viewBox="0 0 16 16" width="16px" xmlns="http://www.w3.org/2000/svg">
    <g fill="#2e3436">
        <path d="m 7.917969 1 c -1.617188 0 -2.917969 1.300781 -2.917969 2.917969 v 1.082031 c -0.5625 0.007812 -1.007812 0.46875 -1 1.03125 v 3.9375 c 0 0.570312 0.460938 1.03125 1.03125 1.03125 h 1.96875 v 1.875 h 2 v -1.875 h 1.96875 c 0.570312 0 1.03125 -0.460938 1.03125 -1.03125 v -3.9375 c 0.007812 -0.5625 -0.4375 -1.023438 -1 -1.03125 v -1.082031 c 0 -1.617188 -1.300781 -2.917969 -2.917969 -2.917969 z m 0.082031 2 c 0.554688 0 1 0.445312 1 1 v 1 h -2 v -1 c 0 -0.554688 0.445312 -1 1 -1 z m 0 0"/>
        <path d="m 7.996094 15.949219 c -0.703125 0 -1.351563 -0.371094 -1.714844 -0.972657 h -3.285156 c -0.550782 0 -1 -0.449218 -1 -1 c 0 -0.550781 0.449218 -1 1 -1 h 3.25 c 0.351562 -0.640624 1.019531 -1.035156 1.75 -1.039062 c 0.730468 0.003906 1.402344 0.398438 1.753906 1.039062 h 3.257812 c 0.554688 0 1 0.449219 1 1 c 0 0.550782 -0.445312 1 -1 1 h -3.292968 c -0.363282 0.601563 -1.015625 0.972657 -1.71875 0.972657 z m 0 -1 c 0.554687 0 1.007812 -0.449219 1.007812 -1.003907 c 0 -0.558593 -0.453125 -1.007812 -1.007812 -1.007812 c -0.554688 0 -1.003906 0.449219 -1.003906 1.007812 c 0 0.554688 0.449218 1.003907 1.003906 1.003907 z m 0 0"/>
    </g>
</svg>

<?xml version="1.0" encoding="UTF-8"?>
<svg xmlns="http://www.w3.org/2000/svg" xmlns:xlink="http://www.w3.org/1999/xlink" width="16px" height="16px" viewBox="0 0 16 16" version="1.1">
<g id="surface112544">
<path style=" stroke:none;fill-rule:nonzero;fill:rgb(18.039216%,20.392157%,21.176471%);fill-opacity:1;" d="M 7.917969 1 C 6.300781 1 5 2.300781 5 3.917969 L 5 5 C 4.4375 5.007812 3.992188 5.46875 4 6.03125 L 4 9.96875 C 4 10.539062 4.460938 11 5.03125 11 L 7 11 L 7 12.875 L 9 12.875 L 9 11 L 10.96875 11 C 11.539062 11 12 10.539062 12 9.96875 L 12 6.03125 C 12.007812 5.46875 11.5625 5.007812 11 5 L 11 3.917969 C 11 2.300781 9.699219 1 8.082031 1 Z M 8 3 C 8.554688 3 9 3.445312 9 4 L 9 5 L 7 5 L 7 4 C 7 3.445312 7.445312 3 8 3 Z M 8 3 "/>
<path style=" stroke:none;fill-rule:nonzero;fill:rgb(18.039216%,20.392157%,21.176471%);fill-opacity:1;" d="M 7.996094 15.949219 C 7.292969 15.949219 6.644531 15.578125 6.28125 14.976562 L 2.996094 14.976562 C 2.445312 14.976562 1.996094 14.527344 1.996094 13.976562 C 1.996094 13.425781 2.445312 12.976562 2.996094 12.976562 L 6.246094 12.976562 C 6.597656 12.335938 7.265625 11.941406 7.996094 11.9375 C 8.726562 11.941406 9.398438 12.335938 9.75 12.976562 L 13.007812 12.976562 C 13.5625 12.976562 14.007812 13.425781 14.007812 13.976562 C 14.007812 14.527344 13.5625 14.976562 13.007812 14.976562 L 9.714844 14.976562 C 9.351562 15.578125 8.699219 15.949219 7.996094 15.949219 Z M 7.996094 14.949219 C 8.550781 14.949219 9.003906 14.5 9.003906 13.945312 C 9.003906 13.386719 8.550781 12.9375 7.996094 12.9375 C 7.441406 12.9375 6.992188 13.386719 6.992188 13.945312 C 6.992188 14.5 7.441406 14.949219 7.996094 14.949219 Z M 7.996094 14.949219 "/>
</g>
</svg>
